X: 1
T: O'Shaughnessy's
M: 6/8
L: 1/8
R: jig
K: Gmaj
|:gGG fGG|edB GAB|~A3  DFA|GBe def|
gGG fgg|edB GAB|~A3  DFA|1AGF ~G3:|2AGF G3||
|:A2d f2d|B2g gag|^c2a aba|fdB AFG|
A2d efd|B2g gfg|~a3 ge^c|1ed^c d^cB:|2ed^c def||
